icons/mobile/16/svg/shield-slash-fill-16.svg

<svg width="16" height="16" viewBox="0 0 16 16" fill="none" xmlns="http://www.w3.org/2000/svg">
<path d="M11.3837 11.5665C10.7098 12.4363 9.88771 13.1928 8.99988 13.7247C8.69288 13.9087 8.34781 14.0011 8.00281 14.0011C7.6529 14.0011 7.30112 13.9059 6.98719 13.7169C5.90819 13.0669 4.9115 12.0937 4.1825 10.9757C3.78869 10.3698 3.51127 9.63489 3.35731 8.79017L3.03406 7.01283C2.86419 6.08193 3.35705 5.14719 4.20594 4.78919C4.31194 4.74419 4.41344 4.68873 4.51844 4.64173L11.3837 11.5665Z" fill="black"/>
<path d="M6.86512 3.34779C7.55601 2.88098 8.44303 2.88378 9.12293 3.35658C9.52783 3.6385 9.95279 3.9028 10.3837 4.14076C10.8437 4.39576 11.316 4.62535 11.788 4.82435C12.6419 5.18439 13.1377 6.11807 12.9667 7.04603L12.6454 8.79505C12.5135 9.51368 12.2716 10.135 11.9618 10.6818L7.99988 6.71986L5.47449 4.17396C5.95149 3.92096 6.42112 3.64779 6.86512 3.34779Z" fill="black"/>
<path d="M1.68257 2.68257C1.92665 2.43849 2.32326 2.43849 2.56734 2.68257L13.3173 13.4326C13.5614 13.6766 13.5614 14.0733 13.3173 14.3173C13.0733 14.5614 12.6766 14.5614 12.4326 14.3173L1.68257 3.56734C1.43849 3.32326 1.43849 2.92665 1.68257 2.68257Z" fill="black"/>
</svg>

<!-- This Source Code Form is subject to the terms of the Mozilla Public
   - License, v. 2.0. If a copy of the MPL was not distributed with this
   - file, You can obtain one at http://mozilla.org/MPL/2.0/. -->
<svg xmlns="http://www.w3.org/2000/svg" width="16" height="16" fill="none" viewBox="0 0 16 16">
    <path fill="#000" d="M1.682 2.682a.627.627 0 0 1 .885 0l10.75 10.75a.626.626 0 0 1-.885.885l-1.846-1.846A8.3 8.3 0 0 1 9 13.725a1.94 1.94 0 0 1-.997.276 1.97 1.97 0 0 1-1.016-.284c-1.08-.65-2.075-1.623-2.804-2.74-.394-.607-.672-1.342-.826-2.187l-.323-1.777a2.05 2.05 0 0 1 .43-1.665L1.681 3.567a.627.627 0 0 1 0-.885m5.184.666a1.98 1.98 0 0 1 2.258.009 14.6 14.6 0 0 0 2.665 1.467c.854.36 1.35 1.294 1.18 2.222l-.323 1.75a6 6 0 0 1-.682 1.886L8 6.72 5.475 4.174a15 15 0 0 0 1.39-.826" />
</svg>
